usr/share/icons/biglinux-icons-material/scalable/mimetypes/libreoffice-oasis-master-document.svg

<svg width="24" height="24" viewBox="0 0 24 24" fill="none" xmlns="http://www.w3.org/2000/svg">
<rect x="1.5" y="1.5" width="21" height="21" rx="6.1" fill="url(#paint0_radial_21_721)" stroke="#5B5B5B"/>
<path d="M20 6H11.4712V11.8635H20V6Z" fill="#1C99E0"/>
<path d="M19.4664 6.53304H12.0043V11.3304H19.4664V6.53304Z" fill="#C5EBFF"/>
<path d="M19.4487 8.69587C18.8596 8.69587 18.2947 8.46613 17.8781 8.05718C17.4616 7.64822 17.2276 7.09356 17.2276 6.51522H19.4487V8.69587Z" fill="#DCDB46"/>
<path d="M16.3752 10.1577L14.1986 7.57447L12.022 10.7318V11.3058H19.4846V10.7318L17.93 9.00964L16.3752 10.1577Z" fill="#37B324"/>
<path d="M10.3964 6.53446H4V7.60055H10.3964V6.53446Z" fill="#1C99E0"/>
<path d="M10.3964 8.66681H4V9.7329H10.3964V8.66681Z" fill="#1C99E0"/>
<path d="M10.3964 10.799H4V11.865H10.3964V10.799Z" fill="#1C99E0"/>
<path d="M19.9912 12.9311H4V13.9972H19.9912V12.9311Z" fill="#1C99E0"/>
<path d="M19.9912 15.0633H4V16.1293H19.9912V15.0633Z" fill="#1C99E0"/>
<path d="M16.7931 17.196H4V18.2621H16.7931V17.196Z" fill="#1C99E0"/>
<defs>
<radialGradient id="paint0_radial_21_721" cx="0" cy="0" r="1" gradientUnits="userSpaceOnUse" gradientTransform="translate(17.5 1) rotate(116.565) scale(24.5967)">
<stop stop-color="#F4F4F4"/>
<stop offset="1" stop-color="#BBBBBB"/>
</radialGradient>
</defs>
</svg>

<svg xmlns="http://www.w3.org/2000/svg" width="24" height="24" fill="none"><rect width="21" height="21" x="1.5" y="1.5" fill="url(#a)" stroke="#5B5B5B" rx="6.1"/><path fill="#1C99E0" d="M20 6h-8.529v5.864H20V6Z"/><path fill="#C5EBFF" d="M19.466 6.533h-7.462v4.797h7.462V6.533Z"/><path fill="#DCDB46" d="M19.449 8.696c-.59 0-1.154-.23-1.57-.639a2.16 2.16 0 0 1-.651-1.542h2.22v2.18Z"/><path fill="#37B324" d="M16.375 10.158 14.2 7.574l-2.177 3.158v.574h7.463v-.574L17.93 9.01l-1.555 1.148Z"/><path fill="#1C99E0" d="M10.396 6.534H4v1.067h6.396V6.534ZM10.396 8.667H4v1.066h6.396V8.667ZM10.396 10.799H4v1.066h6.396v-1.066ZM19.991 12.931H4v1.066h15.991v-1.066ZM19.991 15.063H4v1.066h15.991v-1.066ZM16.793 17.196H4v1.066h12.793v-1.066Z"/><defs><radialGradient id="a" cx="0" cy="0" r="1" gradientTransform="rotate(116.565 8.441 5.908) scale(24.5967)" gradientUnits="userSpaceOnUse"><stop stop-color="#F4F4F4"/><stop offset="1" stop-color="#BBB"/></radialGradient></defs></svg>
